static/ox-hugo/iryXEl.svg

<?xml version="1.0" encoding="UTF-8" standalone="no"?>
<svg
   width="209.763pt"
   height="168.53pt"
   viewBox="0 0 209.763 168.53"
   version="1.2"
   id="svg104"
   xmlns:xlink="http://www.w3.org/1999/xlink"
   xmlns="http://www.w3.org/2000/svg"
   xmlns:svg="http://www.w3.org/2000/svg">
  <defs
     id="defs31">
    <g
       id="g26">
      <symbol
         overflow="visible"
         id="glyph0-0">
        <path
           style="stroke:none;"
           d=""
           id="path2" />
      </symbol>
      <symbol
         overflow="visible"
         id="glyph0-1">
        <path
           style="stroke:none;"
           d="M 6.5625 -2.296875 C 6.734375 -2.296875 6.921875 -2.296875 6.921875 -2.5 C 6.921875 -2.6875 6.734375 -2.6875 6.5625 -2.6875 L 1.171875 -2.6875 C 1 -2.6875 0.828125 -2.6875 0.828125 -2.5 C 0.828125 -2.296875 1 -2.296875 1.171875 -2.296875 Z M 6.5625 -2.296875 "
           id="path5" />
      </symbol>
      <symbol
         overflow="visible"
         id="glyph1-0">
        <path
           style="stroke:none;"
           d=""
           id="path8" />
      </symbol>
      <symbol
         overflow="visible"
         id="glyph1-1">
        <path
           style="stroke:none;"
           d="M 1.265625 -0.765625 L 2.328125 -1.796875 C 3.875 -3.171875 4.46875 -3.703125 4.46875 -4.703125 C 4.46875 -5.84375 3.578125 -6.640625 2.359375 -6.640625 C 1.234375 -6.640625 0.5 -5.71875 0.5 -4.828125 C 0.5 -4.28125 1 -4.28125 1.03125 -4.28125 C 1.203125 -4.28125 1.546875 -4.390625 1.546875 -4.8125 C 1.546875 -5.0625 1.359375 -5.328125 1.015625 -5.328125 C 0.9375 -5.328125 0.921875 -5.328125 0.890625 -5.3125 C 1.109375 -5.96875 1.65625 -6.328125 2.234375 -6.328125 C 3.140625 -6.328125 3.5625 -5.515625 3.5625 -4.703125 C 3.5625 -3.90625 3.078125 -3.125 2.515625 -2.5 L 0.609375 -0.375 C 0.5 -0.265625 0.5 -0.234375 0.5 0 L 4.203125 0 L 4.46875 -1.734375 L 4.234375 -1.734375 C 4.171875 -1.4375 4.109375 -1 4 -0.84375 C 3.9375 -0.765625 3.28125 -0.765625 3.0625 -0.765625 Z M 1.265625 -0.765625 "
           id="path11" />
      </symbol>
      <symbol
         overflow="visible"
         id="glyph1-2">
        <path
           style="stroke:none;"
           d="M 2.9375 -6.375 C 2.9375 -6.625 2.9375 -6.640625 2.703125 -6.640625 C 2.078125 -6 1.203125 -6 0.890625 -6 L 0.890625 -5.6875 C 1.09375 -5.6875 1.671875 -5.6875 2.1875 -5.953125 L 2.1875 -0.78125 C 2.1875 -0.421875 2.15625 -0.3125 1.265625 -0.3125 L 0.953125 -0.3125 L 0.953125 0 C 1.296875 -0.03125 2.15625 -0.03125 2.5625 -0.03125 C 2.953125 -0.03125 3.828125 -0.03125 4.171875 0 L 4.171875 -0.3125 L 3.859375 -0.3125 C 2.953125 -0.3125 2.9375 -0.421875 2.9375 -0.78125 Z M 2.9375 -6.375 "
           id="path14" />
      </symbol>
      <symbol
         overflow="visible"
         id="glyph1-3">
        <path
           style="stroke:none;"
           d="M 2.890625 -3.515625 C 3.703125 -3.78125 4.28125 -4.46875 4.28125 -5.265625 C 4.28125 -6.078125 3.40625 -6.640625 2.453125 -6.640625 C 1.453125 -6.640625 0.6875 -6.046875 0.6875 -5.28125 C 0.6875 -4.953125 0.90625 -4.765625 1.203125 -4.765625 C 1.5 -4.765625 1.703125 -4.984375 1.703125 -5.28125 C 1.703125 -5.765625 1.234375 -5.765625 1.09375 -5.765625 C 1.390625 -6.265625 2.046875 -6.390625 2.40625 -6.390625 C 2.828125 -6.390625 3.375 -6.171875 3.375 -5.28125 C 3.375 -5.15625 3.34375 -4.578125 3.09375 -4.140625 C 2.796875 -3.65625 2.453125 -3.625 2.203125 -3.625 C 2.125 -3.609375 1.890625 -3.59375 1.8125 -3.59375 C 1.734375 -3.578125 1.671875 -3.5625 1.671875 -3.46875 C 1.671875 -3.359375 1.734375 -3.359375 1.90625 -3.359375 L 2.34375 -3.359375 C 3.15625 -3.359375 3.53125 -2.6875 3.53125 -1.703125 C 3.53125 -0.34375 2.84375 -0.0625 2.40625 -0.0625 C 1.96875 -0.0625 1.21875 -0.234375 0.875 -0.8125 C 1.21875 -0.765625 1.53125 -0.984375 1.53125 -1.359375 C 1.53125 -1.71875 1.265625 -1.921875 0.984375 -1.921875 C 0.734375 -1.921875 0.421875 -1.78125 0.421875 -1.34375 C 0.421875 -0.4375 1.34375 0.21875 2.4375 0.21875 C 3.65625 0.21875 4.5625 -0.6875 4.5625 -1.703125 C 4.5625 -2.515625 3.921875 -3.296875 2.890625 -3.515625 Z M 2.890625 -3.515625 "
           id="path17" />
      </symbol>
      <symbol
         overflow="visible"
         id="glyph1-4">
        <path
           style="stroke:none;"
           d="M 2.9375 -1.640625 L 2.9375 -0.78125 C 2.9375 -0.421875 2.90625 -0.3125 2.171875 -0.3125 L 1.96875 -0.3125 L 1.96875 0 C 2.375 -0.03125 2.890625 -0.03125 3.3125 -0.03125 C 3.734375 -0.03125 4.25 -0.03125 4.671875 0 L 4.671875 -0.3125 L 4.453125 -0.3125 C 3.71875 -0.3125 3.703125 -0.421875 3.703125 -0.78125 L 3.703125 -1.640625 L 4.6875 -1.640625 L 4.6875 -1.953125 L 3.703125 -1.953125 L 3.703125 -6.484375 C 3.703125 -6.6875 3.703125 -6.75 3.53125 -6.75 C 3.453125 -6.75 3.421875 -6.75 3.34375 -6.625 L 0.28125 -1.953125 L 0.28125 -1.640625 Z M 2.984375 -1.953125 L 0.5625 -1.953125 L 2.984375 -5.671875 Z M 2.984375 -1.953125 "
           id="path20" />
      </symbol>
      <symbol
         overflow="visible"
         id="glyph1-5">
        <path
           style="stroke:none;"
           d="M 4.46875 -2 C 4.46875 -3.1875 3.65625 -4.1875 2.578125 -4.1875 C 2.109375 -4.1875 1.671875 -4.03125 1.3125 -3.671875 L 1.3125 -5.625 C 1.515625 -5.5625 1.84375 -5.5 2.15625 -5.5 C 3.390625 -5.5 4.09375 -6.40625 4.09375 -6.53125 C 4.09375 -6.59375 4.0625 -6.640625 3.984375 -6.640625 C 3.984375 -6.640625 3.953125 -6.640625 3.90625 -6.609375 C 3.703125 -6.515625 3.21875 -6.3125 2.546875 -6.3125 C 2.15625 -6.3125 1.6875 -6.390625 1.21875 -6.59375 C 1.140625 -6.625 1.125 -6.625 1.109375 -6.625 C 1 -6.625 1 -6.546875 1 -6.390625 L 1 -3.4375 C 1 -3.265625 1 -3.1875 1.140625 -3.1875 C 1.21875 -3.1875 1.234375 -3.203125 1.28125 -3.265625 C 1.390625 -3.421875 1.75 -3.96875 2.5625 -3.96875 C 3.078125 -3.96875 3.328125 -3.515625 3.40625 -3.328125 C 3.5625 -2.953125 3.59375 -2.578125 3.59375 -2.078125 C 3.59375 -1.71875 3.59375 -1.125 3.34375 -0.703125 C 3.109375 -0.3125 2.734375 -0.0625 2.28125 -0.0625 C 1.5625 -0.0625 0.984375 -0.59375 0.8125 -1.171875 C 0.84375 -1.171875 0.875 -1.15625 0.984375 -1.15625 C 1.3125 -1.15625 1.484375 -1.40625 1.484375 -1.640625 C 1.484375 -1.890625 1.3125 -2.140625 0.984375 -2.140625 C 0.84375 -2.140625 0.5 -2.0625 0.5 -1.609375 C 0.5 -0.75 1.1875 0.21875 2.296875 0.21875 C 3.453125 0.21875 4.46875 -0.734375 4.46875 -2 Z M 4.46875 -2 "
           id="path23" />
      </symbol>
    </g>
    <clipPath
       id="clip1">
      <path
         d="M 59 0.195312 L 127 0.195312 L 127 99 L 59 99 Z M 59 0.195312 "
         id="path28" />
    </clipPath>
  </defs>
  <g
     id="surface1">
    <path
       style="fill:#e3e3ff;fill-opacity:1;fill-rule:nonzero;stroke:none"
       d="m 65.191406,92.417969 2.3125,-2.003907 2.3125,-2.175781 2.3125,-2.367187 2.3125,-2.574219 2.3125,-2.792969 2.3125,-3.039062 2.3125,-3.304688 2.3125,-3.589844 2.316406,-3.902343 2.3125,-4.238281 2.3125,-4.609376 2.3125,-5.011718 V 115.47266 H 65.1875 65.1914 Z m 0,0"
       id="path33" />
    <g
       clip-path="url(#clip1)"
       clip-rule="nonzero"
       id="g37">
      <path
         style="fill:none;stroke:#ff0000;stroke-width:0.3985;stroke-linecap:butt;stroke-linejoin:miter;stroke-miterlimit:10;stroke-opacity:1"
         d="m 55.505406,69.166031 2.3125,2.003907 2.3125,2.175781 2.3125,2.367187 2.3125,2.574219 2.3125,2.792969 2.3125,3.039062 2.3125,3.304688 2.3125,3.589844 2.316406,3.902343 2.3125,4.238282 2.3125,4.609377 2.3125,5.01172 2.3125,5.44531 2.3125,5.91797 2.3125,6.43359 2.3125,6.99219 2.3125,7.60156 2.3125,8.25781 2.3125,8.98047 2.312498,9.75391 2.3125,10.60937 2.3125,11.52735 2.3125,12.53125 2.3125,13.61328"
         transform="matrix(1,0,0,-1,9.686,161.584)"
         id="path35" />
    </g>
    <g
       style="fill:#000000;fill-opacity:1"
       id="g41">
      <use
         xlink:href="#glyph0-1"
         x="3.3210001"
         y="127.54"
         id="use39" />
    </g>
    <g
       style="fill:#000000;fill-opacity:1"
       id="g45">
      <use
         xlink:href="#glyph1-1"
         x="11.069"
         y="127.54"
         id="use43" />
    </g>
    <g
       style="fill:#000000;fill-opacity:1"
       id="g49">
      <use
         xlink:href="#glyph0-1"
         x="31.073"
         y="127.54"
         id="use47" />
    </g>
    <g
       style="fill:#000000;fill-opacity:1"
       id="g53">
      <use
         xlink:href="#glyph1-2"
         x="38.821999"
         y="127.54"
         id="use51" />
    </g>
    <g
       style="fill:#000000;fill-opacity:1"
       id="g57">
      <use
         xlink:href="#glyph1-2"
         x="90.452003"
         y="127.54"
         id="use55" />
    </g>
    <g
       style="fill:#000000;fill-opacity:1"
       id="g61">
      <use
         xlink:href="#glyph1-1"
         x="118.204"
         y="127.54"
         id="use59" />
    </g>
    <g
       style="fill:#000000;fill-opacity:1"
       id="g65">
      <use
         xlink:href="#glyph1-3"
         x="145.957"
         y="127.54"
         id="use63" />
    </g>
    <g
       style="fill:#000000;fill-opacity:1"
       id="g69">
      <use
         xlink:href="#glyph1-4"
         x="173.709"
         y="127.54"
         id="use67" />
    </g>
    <g
       style="fill:#000000;fill-opacity:1"
       id="g73">
      <use
         xlink:href="#glyph1-5"
         x="201.46201"
         y="127.54"
         id="use71" />
    </g>
    <g
       style="fill:#000000;fill-opacity:1"
       id="g77">
      <use
         xlink:href="#glyph0-1"
         x="46.814999"
         y="164.379"
         id="use75" />
    </g>
    <g
       style="fill:#000000;fill-opacity:1"
       id="g81">
      <use
         xlink:href="#glyph1-1"
         x="54.563"
         y="164.379"
         id="use79" />
    </g>
    <g
       style="fill:#000000;fill-opacity:1"
       id="g85">
      <use
         xlink:href="#glyph1-1"
         x="54.563"
         y="72.573997"
         id="use83" />
    </g>
    <g
       style="fill:#000000;fill-opacity:1"
       id="g89">
      <use
         xlink:href="#glyph1-4"
         x="54.563"
         y="26.464001"
         id="use87" />
    </g>
    <path
       style="fill:none;stroke:#7f7f7f;stroke-width:0.19925;stroke-linecap:butt;stroke-linejoin:miter;stroke-miterlimit:10;stroke-opacity:1"
       d="m 0.0015,43.986344 v 4.25 m 27.75,-4.25 v 4.25 m 55.507812,-4.25 v 4.25 m 27.749998,-4.25 v 4.25 m 27.75391,-4.25 v 4.25 m 27.7539,-4.25 v 4.25 m 27.75391,-4.25 v 4.25"
       transform="matrix(1,0,0,-1,9.686,161.584)"
       id="path91" />
    <path
       style="fill:none;stroke:#7f7f7f;stroke-width:0.19925;stroke-linecap:butt;stroke-linejoin:miter;stroke-miterlimit:10;stroke-opacity:1"
       d="m 53.380406,-0.0019375 h 4.25 m -4.25,92.2226565 h 4.25 m -4.25,46.109371 h 4.25"
       transform="matrix(1,0,0,-1,9.686,161.584)"
       id="path93" />
    <path
       style="fill:none;stroke:#000000;stroke-width:0.3985;stroke-linecap:butt;stroke-linejoin:miter;stroke-miterlimit:10;stroke-opacity:1"
       d="M 0.0015,46.111344 H 192.27494"
       transform="matrix(1,0,0,-1,9.686,161.584)"
       id="path95" />
    <path
       style="fill:#000000;fill-opacity:1;fill-rule:nonzero;stroke:none"
       d="m 203.95703,115.47266 -3.19141,-1.59375 1.19532,1.59375 -1.19532,1.59375"
       id="path97" />
    <path
       style="fill:none;stroke:#000000;stroke-width:0.3985;stroke-linecap:butt;stroke-linejoin:miter;stroke-miterlimit:10;stroke-opacity:1"
       d="M 55.505406,-0.0019375 V 159.3965"
       transform="matrix(1,0,0,-1,9.686,161.584)"
       id="path99" />
    <path
       style="fill:#000000;fill-opacity:1;fill-rule:nonzero;stroke:none"
       d="m 65.191406,0.195312 -1.59375,3.191407 1.59375,-1.199219 1.59375,1.199219"
       id="path101" />
  </g>
</svg>

<?xml version="1.0" encoding="UTF-8" standalone="no"?>
<svg
   width="209.763pt"
   height="168.53pt"
   viewBox="0 0 209.763 168.53"
   version="1.1"
   id="svg99"
   xmlns:xlink="http://www.w3.org/1999/xlink"
   xmlns="http://www.w3.org/2000/svg"
   xmlns:svg="http://www.w3.org/2000/svg">
  <defs
     id="defs27">
    <g
       id="g22">
      <g
         id="glyph-0-0" />
      <g
         id="glyph-0-1">
        <path
           d="M 6.5625 -2.296875 C 6.734375 -2.296875 6.921875 -2.296875 6.921875 -2.5 C 6.921875 -2.6875 6.734375 -2.6875 6.5625 -2.6875 L 1.171875 -2.6875 C 1 -2.6875 0.828125 -2.6875 0.828125 -2.5 C 0.828125 -2.296875 1 -2.296875 1.171875 -2.296875 Z M 6.5625 -2.296875 "
           id="path3" />
      </g>
      <g
         id="glyph-1-0" />
      <g
         id="glyph-1-1">
        <path
           d="M 1.265625 -0.765625 L 2.328125 -1.796875 C 3.875 -3.171875 4.46875 -3.703125 4.46875 -4.703125 C 4.46875 -5.84375 3.578125 -6.640625 2.359375 -6.640625 C 1.234375 -6.640625 0.5 -5.71875 0.5 -4.828125 C 0.5 -4.28125 1 -4.28125 1.03125 -4.28125 C 1.203125 -4.28125 1.546875 -4.390625 1.546875 -4.8125 C 1.546875 -5.0625 1.359375 -5.328125 1.015625 -5.328125 C 0.9375 -5.328125 0.921875 -5.328125 0.890625 -5.3125 C 1.109375 -5.96875 1.65625 -6.328125 2.234375 -6.328125 C 3.140625 -6.328125 3.5625 -5.515625 3.5625 -4.703125 C 3.5625 -3.90625 3.078125 -3.125 2.515625 -2.5 L 0.609375 -0.375 C 0.5 -0.265625 0.5 -0.234375 0.5 0 L 4.203125 0 L 4.46875 -1.734375 L 4.234375 -1.734375 C 4.171875 -1.4375 4.109375 -1 4 -0.84375 C 3.9375 -0.765625 3.28125 -0.765625 3.0625 -0.765625 Z M 1.265625 -0.765625 "
           id="path7" />
      </g>
      <g
         id="glyph-1-2">
        <path
           d="M 2.9375 -6.375 C 2.9375 -6.625 2.9375 -6.640625 2.703125 -6.640625 C 2.078125 -6 1.203125 -6 0.890625 -6 L 0.890625 -5.6875 C 1.09375 -5.6875 1.671875 -5.6875 2.1875 -5.953125 L 2.1875 -0.78125 C 2.1875 -0.421875 2.15625 -0.3125 1.265625 -0.3125 L 0.953125 -0.3125 L 0.953125 0 C 1.296875 -0.03125 2.15625 -0.03125 2.5625 -0.03125 C 2.953125 -0.03125 3.828125 -0.03125 4.171875 0 L 4.171875 -0.3125 L 3.859375 -0.3125 C 2.953125 -0.3125 2.9375 -0.421875 2.9375 -0.78125 Z M 2.9375 -6.375 "
           id="path10" />
      </g>
      <g
         id="glyph-1-3">
        <path
           d="M 2.890625 -3.515625 C 3.703125 -3.78125 4.28125 -4.46875 4.28125 -5.265625 C 4.28125 -6.078125 3.40625 -6.640625 2.453125 -6.640625 C 1.453125 -6.640625 0.6875 -6.046875 0.6875 -5.28125 C 0.6875 -4.953125 0.90625 -4.765625 1.203125 -4.765625 C 1.5 -4.765625 1.703125 -4.984375 1.703125 -5.28125 C 1.703125 -5.765625 1.234375 -5.765625 1.09375 -5.765625 C 1.390625 -6.265625 2.046875 -6.390625 2.40625 -6.390625 C 2.828125 -6.390625 3.375 -6.171875 3.375 -5.28125 C 3.375 -5.15625 3.34375 -4.578125 3.09375 -4.140625 C 2.796875 -3.65625 2.453125 -3.625 2.203125 -3.625 C 2.125 -3.609375 1.890625 -3.59375 1.8125 -3.59375 C 1.734375 -3.578125 1.671875 -3.5625 1.671875 -3.46875 C 1.671875 -3.359375 1.734375 -3.359375 1.90625 -3.359375 L 2.34375 -3.359375 C 3.15625 -3.359375 3.53125 -2.6875 3.53125 -1.703125 C 3.53125 -0.34375 2.84375 -0.0625 2.40625 -0.0625 C 1.96875 -0.0625 1.21875 -0.234375 0.875 -0.8125 C 1.21875 -0.765625 1.53125 -0.984375 1.53125 -1.359375 C 1.53125 -1.71875 1.265625 -1.921875 0.984375 -1.921875 C 0.734375 -1.921875 0.421875 -1.78125 0.421875 -1.34375 C 0.421875 -0.4375 1.34375 0.21875 2.4375 0.21875 C 3.65625 0.21875 4.5625 -0.6875 4.5625 -1.703125 C 4.5625 -2.515625 3.921875 -3.296875 2.890625 -3.515625 Z M 2.890625 -3.515625 "
           id="path13" />
      </g>
      <g
         id="glyph-1-4">
        <path
           d="M 2.9375 -1.640625 L 2.9375 -0.78125 C 2.9375 -0.421875 2.90625 -0.3125 2.171875 -0.3125 L 1.96875 -0.3125 L 1.96875 0 C 2.375 -0.03125 2.890625 -0.03125 3.3125 -0.03125 C 3.734375 -0.03125 4.25 -0.03125 4.671875 0 L 4.671875 -0.3125 L 4.453125 -0.3125 C 3.71875 -0.3125 3.703125 -0.421875 3.703125 -0.78125 L 3.703125 -1.640625 L 4.6875 -1.640625 L 4.6875 -1.953125 L 3.703125 -1.953125 L 3.703125 -6.484375 C 3.703125 -6.6875 3.703125 -6.75 3.53125 -6.75 C 3.453125 -6.75 3.421875 -6.75 3.34375 -6.625 L 0.28125 -1.953125 L 0.28125 -1.640625 Z M 2.984375 -1.953125 L 0.5625 -1.953125 L 2.984375 -5.671875 Z M 2.984375 -1.953125 "
           id="path16" />
      </g>
      <g
         id="glyph-1-5">
        <path
           d="M 4.46875 -2 C 4.46875 -3.1875 3.65625 -4.1875 2.578125 -4.1875 C 2.109375 -4.1875 1.671875 -4.03125 1.3125 -3.671875 L 1.3125 -5.625 C 1.515625 -5.5625 1.84375 -5.5 2.15625 -5.5 C 3.390625 -5.5 4.09375 -6.40625 4.09375 -6.53125 C 4.09375 -6.59375 4.0625 -6.640625 3.984375 -6.640625 C 3.984375 -6.640625 3.953125 -6.640625 3.90625 -6.609375 C 3.703125 -6.515625 3.21875 -6.3125 2.546875 -6.3125 C 2.15625 -6.3125 1.6875 -6.390625 1.21875 -6.59375 C 1.140625 -6.625 1.125 -6.625 1.109375 -6.625 C 1 -6.625 1 -6.546875 1 -6.390625 L 1 -3.4375 C 1 -3.265625 1 -3.1875 1.140625 -3.1875 C 1.21875 -3.1875 1.234375 -3.203125 1.28125 -3.265625 C 1.390625 -3.421875 1.75 -3.96875 2.5625 -3.96875 C 3.078125 -3.96875 3.328125 -3.515625 3.40625 -3.328125 C 3.5625 -2.953125 3.59375 -2.578125 3.59375 -2.078125 C 3.59375 -1.71875 3.59375 -1.125 3.34375 -0.703125 C 3.109375 -0.3125 2.734375 -0.0625 2.28125 -0.0625 C 1.5625 -0.0625 0.984375 -0.59375 0.8125 -1.171875 C 0.84375 -1.171875 0.875 -1.15625 0.984375 -1.15625 C 1.3125 -1.15625 1.484375 -1.40625 1.484375 -1.640625 C 1.484375 -1.890625 1.3125 -2.140625 0.984375 -2.140625 C 0.84375 -2.140625 0.5 -2.0625 0.5 -1.609375 C 0.5 -0.75 1.1875 0.21875 2.296875 0.21875 C 3.453125 0.21875 4.46875 -0.734375 4.46875 -2 Z M 4.46875 -2 "
           id="path19" />
      </g>
    </g>
    <clipPath
       id="clip-0">
      <path
         clip-rule="nonzero"
         d="M 59 0.195312 L 127 0.195312 L 127 99 L 59 99 Z M 59 0.195312 "
         id="path24" />
    </clipPath>
  </defs>
  <path
     fill-rule="nonzero"
     fill="rgb(89.99939%, 89.99939%, 100%)"
     fill-opacity="1"
     d="M 65.191406 92.417969 L 67.503906 90.414062 L 69.816406 88.238281 L 72.128906 85.871094 L 74.441406 83.296875 L 76.753906 80.503906 L 79.066406 77.464844 L 81.378906 74.160156 L 83.691406 70.570312 L 86.007812 66.667969 L 88.320312 62.429688 L 90.632812 57.820312 L 92.945312 52.808594 L 92.945312 115.472656 L 65.1875 115.472656 L 65.191406 115.472656 Z M 65.191406 92.417969 "
     id="path29" />
  <g
     clip-path="url(#clip-0)"
     id="g33">
    <path
       fill="none"
       stroke-width="0.3985"
       stroke-linecap="butt"
       stroke-linejoin="miter"
       stroke="#ff0000"
       stroke-opacity="1"
       stroke-miterlimit="10"
       d="m 55.505406,69.166031 2.3125,2.003907 2.3125,2.175781 2.3125,2.367187 2.3125,2.574219 2.3125,2.792969 2.3125,3.039062 2.3125,3.304688 2.3125,3.589844 2.316406,3.902343 2.3125,4.238282 2.3125,4.609377 2.3125,5.01172 2.3125,5.44531 2.3125,5.91797 2.3125,6.43359 2.3125,6.99219 2.3125,7.60156 2.3125,8.25781 2.3125,8.98047 2.312498,9.75391 2.3125,10.60937 2.3125,11.52735 2.3125,12.53125 2.3125,13.61328"
       transform="matrix(1,0,0,-1,9.686,161.584)"
       id="path31" />
  </g>
  <g
     fill="#000000"
     fill-opacity="1"
     id="g37">
    <use
       xlink:href="#glyph-0-1"
       x="3.3210001"
       y="127.54"
       id="use35" />
  </g>
  <g
     fill="#000000"
     fill-opacity="1"
     id="g41">
    <use
       xlink:href="#glyph-1-1"
       x="11.069"
       y="127.54"
       id="use39" />
  </g>
  <g
     fill="#000000"
     fill-opacity="1"
     id="g45">
    <use
       xlink:href="#glyph-0-1"
       x="31.073"
       y="127.54"
       id="use43" />
  </g>
  <g
     fill="#000000"
     fill-opacity="1"
     id="g49">
    <use
       xlink:href="#glyph-1-2"
       x="38.821999"
       y="127.54"
       id="use47" />
  </g>
  <g
     fill="#000000"
     fill-opacity="1"
     id="g53">
    <use
       xlink:href="#glyph-1-2"
       x="90.452003"
       y="127.54"
       id="use51" />
  </g>
  <g
     fill="#000000"
     fill-opacity="1"
     id="g57">
    <use
       xlink:href="#glyph-1-1"
       x="118.204"
       y="127.54"
       id="use55" />
  </g>
  <g
     fill="#000000"
     fill-opacity="1"
     id="g61">
    <use
       xlink:href="#glyph-1-3"
       x="145.957"
       y="127.54"
       id="use59" />
  </g>
  <g
     fill="#000000"
     fill-opacity="1"
     id="g65">
    <use
       xlink:href="#glyph-1-4"
       x="173.709"
       y="127.54"
       id="use63" />
  </g>
  <g
     fill="#000000"
     fill-opacity="1"
     id="g69">
    <use
       xlink:href="#glyph-1-5"
       x="201.46201"
       y="127.54"
       id="use67" />
  </g>
  <g
     fill="#000000"
     fill-opacity="1"
     id="g73">
    <use
       xlink:href="#glyph-0-1"
       x="46.814999"
       y="164.379"
       id="use71" />
  </g>
  <g
     fill="#000000"
     fill-opacity="1"
     id="g77">
    <use
       xlink:href="#glyph-1-1"
       x="54.563"
       y="164.379"
       id="use75" />
  </g>
  <g
     fill="#000000"
     fill-opacity="1"
     id="g81">
    <use
       xlink:href="#glyph-1-1"
       x="54.563"
       y="72.573997"
       id="use79" />
  </g>
  <g
     fill="#000000"
     fill-opacity="1"
     id="g85">
    <use
       xlink:href="#glyph-1-4"
       x="54.563"
       y="26.464001"
       id="use83" />
  </g>
  <path
     fill="none"
     stroke-width="0.19925"
     stroke-linecap="butt"
     stroke-linejoin="miter"
     stroke="rgb(50%, 50%, 50%)"
     stroke-opacity="1"
     stroke-miterlimit="10"
     d="M 0.0015 43.986344 L 0.0015 48.236344 M 27.7515 43.986344 L 27.7515 48.236344 M 83.259312 43.986344 L 83.259312 48.236344 M 111.009312 43.986344 L 111.009312 48.236344 M 138.763219 43.986344 L 138.763219 48.236344 M 166.517125 43.986344 L 166.517125 48.236344 M 194.271031 43.986344 L 194.271031 48.236344 "
     transform="matrix(1, 0, 0, -1, 9.686, 161.584)"
     id="path87" />
  <path
     fill="none"
     stroke-width="0.19925"
     stroke-linecap="butt"
     stroke-linejoin="miter"
     stroke="rgb(50%, 50%, 50%)"
     stroke-opacity="1"
     stroke-miterlimit="10"
     d="M 53.380406 -0.0019375 L 57.630406 -0.0019375 M 53.380406 92.220719 L 57.630406 92.220719 M 53.380406 138.330094 L 57.630406 138.330094 "
     transform="matrix(1, 0, 0, -1, 9.686, 161.584)"
     id="path89" />
  <path
     fill="none"
     stroke-width="0.3985"
     stroke-linecap="butt"
     stroke-linejoin="miter"
     stroke="rgb(0%, 0%, 0%)"
     stroke-opacity="1"
     stroke-miterlimit="10"
     d="M 0.0015 46.111344 L 192.274937 46.111344 "
     transform="matrix(1, 0, 0, -1, 9.686, 161.584)"
     id="path91" />
  <path
     fill-rule="nonzero"
     fill="rgb(0%, 0%, 0%)"
     fill-opacity="1"
     d="M 203.957031 115.472656 L 200.765625 113.878906 L 201.960938 115.472656 L 200.765625 117.066406 "
     id="path93" />
  <path
     fill="none"
     stroke-width="0.3985"
     stroke-linecap="butt"
     stroke-linejoin="miter"
     stroke="rgb(0%, 0%, 0%)"
     stroke-opacity="1"
     stroke-miterlimit="10"
     d="M 55.505406 -0.0019375 L 55.505406 159.3965 "
     transform="matrix(1, 0, 0, -1, 9.686, 161.584)"
     id="path95" />
  <path
     fill-rule="nonzero"
     fill="rgb(0%, 0%, 0%)"
     fill-opacity="1"
     d="M 65.191406 0.195312 L 63.597656 3.386719 L 65.191406 2.1875 L 66.785156 3.386719 "
     id="path97" />
</svg>
